X:1
T:Universum (Violin 1)
M:3/4
L:1/8
Q:1/4=100
C:Erik Gustavsson
K:Dm
D |: F3E EF | D3E FG | A3G Bc | A6 | d3c BA | G3B AG |
FE DF (3ECE) |1 D4-D D :|[2 D6 |: d3 ^c ce | d2 A4 | G3A Bc | A6 |
EF GE FE | D2D2DF | EG FE D^C |1 D6 :|[2 D4-D |]
